!!!CDT:
!!!PTL: Li diversi scherzi a due, a tre et quattro voci. Libro sesto
!!!PPP: Antwerp
!!!PPR: Giovanni Battista Robletti
!!!PDT: 1619
!!!RISM: C 2217Z
!!!rime:
!!!AGN: Madrigal
!!!SCT: Tsg16022a
!!!SCA: Tsg16022a
!!!voices:
!!!COM: Cifra, Antonio
!!!OTL: Deh, perché sdegni me, com'egli è vago
**kern	**kern	**text
*part2	*part1	*part1
*staff2	*staff1	*staff1
*I"Basso continuo	*I"Canto	*
*I'Bc	*I'C	*
*oclefF4	*oclefC1	*
*clefF4	*clefG2	*
*k[b-]	*k[b-]	*
*F:	*F:	*
*omet(C)	*omet(C)	*
*M4/4	*M4/4	*
=1	=	=
!	!LO:TX:a:t=Romanesca seconda.	!
1B-y	2r	.
.	[2ff	Deh,
=2	=2	=2
2A	4ff]	.
.	8cc	poi-
.	8dd	-ché
2G	4.b-y	sde-
.	8a	-gni
=3	=3	=3
2F	8ccL	me,
.	8b-yJ	.
.	8b-yTL	.
.	16a	.
.	16gJ	.
4F	8a	.
.	8cc	co-
[4F	8dd	-m'e-
.	8ee	-gli è
=4	=4	=4
4F]	2.ff	va-
4F	.	.
2G	.	.
.	8.ee-XL	.
.	16ddJ	.
=5	=5	=5
2D	16ddL	.
.	16cc	.
.	16b-y	.
.	16aJ	.
.	16ddL	.
.	16cc	.
.	16b-y	.
.	16aJ	.
2E-X	16ccL	.
.	16b-y	.
.	16a	.
.	16gJ	.
.	16ccL	.
.	16b-y	.
.	16a	.
.	16gJ	.
=6	=6	=6
2.D	1a	-go
4D	.	.
=7	=7	=7
4D	2r	.
4C	.	.
[2BB-y	4r	.
.	4dd	Mi-
=8	=8	=8
4BB-]	4.ddT	-rar
4AA	.	.
.	8cc	tu al-
2GG	4.ee-X	-men
.	8cc	po-
=9	=9	=9
1FF	4cc	-tes-
.	8ddL	.
.	8eenXiJ	.
.	[2ff	.
=10	=10	=10
2F	8ff]	.
.	8cc	-si il
.	8ddL	.
.	8ee-XJ	.
2G	8b-yL	pro-
.	8ccJ	.
.	8ddL	.
.	[8gJ	.
=11	=11	=11
2C	8g]	.
.	8a	-prio
.	8b-yL	.
.	8ccJ	.
2D	2a	vol-
=12	=12	=12
4GG	2g	-to,
2G	.	.
.	2r	.
4F#X	.	.
=13	=13	=13
4G	2r	.
4A	.	.
[2B-y	4r	.
.	4dd	Mi-
=14	=14	=14
4B-]	4.ee-X	-rar
4A	.	.
.	8cc	tu al-
2G	4.ccT	-men
.	8b-y	po-
=15	=15	=15
[1F	[2cc	-tes-
.	8cc]	.
.	8a	-si il
.	8b-yL	.
.	8ccJ	.
=16	=16	=16
2F]	8fL	pro-
.	8gJ	.
.	8aL	.
.	8b-yJ	.
2E-X	8gL	-prio
.	8aJ	.
.	8b-yL	.
.	[8ccJ	.
=17	=17	=17
2C	8cc]L	.
.	8ddJ	.
.	8ee-X	.
.	[8a	vol-
2D	2a]	.
=18	=18	=18
1GG	1g	-to.
=19||	=19||	=19||
!	!LO:TX:a:t=2a stanza.	!
1B-y	2r	.
.	2dd	Ché'l
=20	=20	=20
2A	2ff	guar-
2G	8ee-XL	-do
.	8ddJ	.
.	8ccL	.
.	8b-yJ	.
=21	=21	=21
2F	2cc	tuo,
4F	4r	.
[4F	4cc	ch'al-
=22	=22	=22
4F]	16ddL	-tro-
.	16cc	.
.	16b-y	.
.	16aJ	.
4F	16ffL	-ve
.	16ee	.
.	16dd	.
.	16ccJ	.
2G	16b-yL	non
.	16a	.
.	16b-y	.
.	16ccJ	.
.	[4dd	.
=23	=23	=23
2D	16dd]L	.
.	16cc	.
.	16b-y	.
.	16aJ	.
.	8b-y	.
.	8f	è
2E-X	16gL	pa-
.	16a	.
.	16b-y	.
.	16aJ	.
.	8.atL	.
.	16gJ	.
=24	=24	=24
2.D	1a	-go,
4D	.	.
=25	=25	=25
4D	2r	.
4C	.	.
[2BB-y	4r	.
.	8dd	Gio-
.	8ee	-i-
=26	=26	=26
4BB-]	8ff	-reb-
.	16ee-XL	-be
.	16ddJ	.
4AA	16ccL	.
.	16b-y	.
.	16cc	.
.	16ddJ	.
2GG	16b-yL	fe-
.	16f	.
.	16g	.
.	16aJ	.
.	16b-yL	.
.	16g	.
.	16a	.
.	16b-yJ	.
=27	=27	=27
1FF	16ccL	-li-
.	16b-y	.
.	16a	.
.	16gJ	.
.	16ccL	.
.	16b-y	.
.	16a	.
.	16gJ	.
.	16f	.
.	16ccL	-ce in
.	16dd	.
.	16eenXiJ	.
.	16ffL	.
.	16dd	.
.	16ee	.
.	16ffJ	.
=28	=28	=28
2F	8ccL	sé
.	16f	.
.	16gJ	.
.	16aL	.
.	16b-y	.
.	16cc	.
.	16ddJ	.
2E-X	8ee-XL	.
.	8ffJ	.
.	[4gg	.
=29	=29	=29
2C	8gg]	.
.	4a	ri-
.	16b-yL	.
.	16ccJ	.
2D	2a	-vol-
=30	=30	=30
4GG	2g	-to,
2G	.	.
.	2r	.
4F#X	.	.
=31	=31	=31
4G	2r	.
4A	.	.
[2B-y	4r	.
.	8b-y	gio-
.	8cc	-i-
=32	=32	=32
4B-]	16ddL	-reb-
.	16cc	.
.	16dd	.
.	16b-yJ	.
4A	16ccL	-be
.	16b-y	.
.	16cc	.
.	16ddJ	.
2G	16b-yL	fe-
.	16cc	.
.	16dd	.
.	16b-yJ	.
.	16ee-XL	.
.	16dd	.
.	16cc	.
.	16b-yJ	.
=33	=33	=33
[1F	16ccL	-li-
.	16a	.
.	16b-y	.
.	16ccJ	.
.	16aL	-ce in
.	16f	.
.	16g	.
.	16aJ	.
.	16fL	sé
.	16g	.
.	16a	.
.	16b-yJ	.
.	16fL	.
.	16g	.
.	16a	.
.	16b-yJ	.
=34	=34	=34
2F]	16ccL	.
.	16a	.
.	16b-y	.
.	16ccJ	.
.	16aL	.
.	16b-y	.
.	16cc	.
.	16b-yJ	.
2E-X	16gL	.
.	16a	.
.	16b-y	.
.	16gJ	.
.	16e-XL	.
.	16f	.
.	16g	.
.	16e-iJ	.
=35	=35	=35
2C	16ee-XL	.
.	16ff	.
.	16gg	.
.	16ee-XJ	.
.	16ccL	ri-
.	32dd	.
.	32ee-X	.
.	8ddJ	.
2D	2a	-vol-
=36	=36	=36
1GG	1g	-to.
=37||	=37||	=37||
!	!LO:TX:a:t=3a stanza.	!
1B-y	4r	.
.	4dd	Non
.	[2ff	può
=38	=38	=38
2A	4ff]	.
.	2cc	spec-
2G	.	.
.	8.ccT	-chio
.	16b-y	ri-
=39	=39	=39
2F	[2cc	-trar
4F	8cc]L	.
.	8aJ	.
[4F	8b-yL	.
.	8ccJ	.
=40	=40	=40
4F]	[2dd	.
4F	.	.
2G	8dd]L	.
.	16ee	.
.	16ffJ	.
.	4gg	.
=41	=41	=41
2D	8r	.
.	8b-y	sì
.	8b-y	dol-
.	8a	-ce i-
2E-X	2cc	-ma-
=42	=42	=42
2.D	1a	-go,
4D	.	.
=43	=43	=43
4D	2r	.
4C	.	.
[2BB-y	4r	.
.	4dd	Né in
=44	=44	=44
4BB-]	4dd	pic-
4AA	16ccL	-ciol
.	16b-y	.
.	16cc	.
.	16ddJ	.
2GG	8b-yL	ve-
.	16cc	.
.	16ddJ	.
.	4ee-X	.
=45	=45	=45
2FF	2.cc	-tro è
[2F	.	.
.	4b-y	un
=46	=46	=46
2F]	4cc	Pa-
.	4dd	-ra-
2E-X	[2ee-X	-di-
=47	=47	=47
2C	4ee-]	.
.	4a	-so ac-
2D	2a	-col-
=48	=48	=48
4GG	2g	-to,
2G	.	.
.	2r	.
4F#X	.	.
=49	=49	=49
4G	2r	.
4A	.	.
[2B-y	4r	.
.	16ddL	Né in
.	16cc	.
.	16dd	.
.	16eeJ	.
=50	=50	=50
4B-]	4.ff	pic-
4A	.	.
.	8cc	-ciol
2G	16ee-XL	ve-
.	16dd	.
.	16ddt	.
.	32cc	.
.	32b-yJ	.
.	16ee-iL	.
.	16dd	.
.	16ddt	.
.	32cc	.
.	32b-yJ	.
=51	=51	=51
[1F	4cc	-tro
.	8r	.
.	8a	è un
.	4f	Pa-
.	4g	-ra-
=52	=52	=52
2F]	8aL	-di-
.	8b-yJ	.
.	8ccL	.
.	8ddJ	.
2E-X	8ee-XL	.
.	8ffJ	.
.	[4gg	.
=53	=53	=53
2C	16gg]	.
.	16ffL	-so ac-
.	16ee-X	.
.	16ddJ	.
.	16ccL	.
.	16a	.
.	16b-y	.
.	16ccJ	.
2D	2a	-col-
=54	=54	=54
1GG	1g	-to.
=55||	=55||	=55||
!	!LO:TX:a:t=4a et ultima stanza.	!
1B-y	2r	.
.	[2ff	Spec-
=56	=56	=56
2A	4ff]	.
.	8cc	-chio
.	8cc	t'è
2G	4.ee-X	de-
.	8dd	-gno il
=57	=57	=57
2F	2.ff	Cie-
4F	.	.
[4F	8fL	-lo, e
.	8gJ	.
=58	=58	=58
4F]	8aL	.
.	8b-yJ	.
4F	8ccL	.
.	8ddJ	.
2G	8ee-XL	.
.	16dd	.
.	16ee-iJ	.
.	[4dd	.
=59	=59	=59
2D	4dd]	.
.	8b-y	nel-
.	8a	-le
2E-X	8aL	stel-
.	8b-yJ	.
.	8aL	.
.	16b-y	.
.	16ccJ	.
=60	=60	=60
2.D	1a	-le
4D	.	.
=61	=61	=61
4D	2r	.
4C	.	.
[2BB-y	4r	.
.	4dd	Puoi
=62	=62	=62
4BB-]	16b-yL	ri-
.	16cc	.
.	16dd	.
.	16b-yJ	.
4AA	16ccL	-guar-
.	16dd	.
.	16ee-X	.
.	16ddJ	.
2GG	16b-yL	-dar
.	16cc	.
.	16dd	.
.	16b-yJ	.
.	16gL	le
.	16a	.
.	16b-y	.
.	16ccJ	.
=63	=63	=63
1FF	16a	tue
.	16cL	sem-
.	16d	.
.	16enXiJ	.
.	16fL	.
.	16g	.
.	16a	.
.	16b-yJ	.
.	[2cc	.
=64	=64	=64
2F	16cc]	.
.	16fL	-bian-
.	16g	.
.	16aJ	.
.	16b-yL	.
.	16cc	.
.	16dd	.
.	32ee	.
.	32ffJ	.
2G	4dd	.
.	4g	-ze
=65	=65	=65
2C	16gL	.
.	16a	.
.	16b-y	.
.	16ccJ	.
.	16ddL	.
.	16ee	.
.	16ff	.
.	16ggJ	.
2D	2a	bel-
=66	=66	=66
4GG	2g	-le,
2G	.	.
.	2r	.
4F#X	.	.
=67	=67	=67
4G	2r	.
4A	.	.
[2B-y	4r	.
.	16ddL	Puoi
.	16cc	.
.	16b-y	.
.	16aJ	.
=68	=68	=68
4B-]	16ff	ri-
.	16eeL	-guar-
.	16dd	.
.	16ccJ	.
4A	16ee-XL	-dar
.	16dd	.
.	16cc	.
.	16b-yJ	.
2G	16ddL	.
.	16cc	.
.	16b-y	.
.	16aJ	.
.	16ee-XL	.
.	16dd	.
.	16cc	.
.	16b-yJ	.
=69	=69	=69
[1F	16ccL	.
.	16b-y	.
.	16a	.
.	16gJ	.
.	16ccL	.
.	16b-y	.
.	16a	.
.	16gJ	.
.	[2a	.
=70	=70	=70
2F]	16a]	.
.	16ccL	le
.	16dd	.
.	16eeJ	.
.	16ffL	.
.	16dd	.
.	16ee	.
.	16ffJ	.
2G	16dd	tue
.	16ddL	sem-
.	16ee	.
.	16ffJ	.
.	16ggL	.
.	16ee	.
.	16ff	.
.	16ggJ	.
=71	=71	=71
2C	16ee-X	-bian-
.	16gL	-ze
.	16a	.
.	16b-yJ	.
.	16ccL	.
.	16a	.
.	16b-y	.
.	16ccJ	.
2D	2a	bel-
=72	=72	=72
1GGl	1gl	-le.
==	==	==
*-	*-	*-
!!!system-decoration: [*]
!!!RDF**kern: i = editorial accidental
!!!RDF**kern: l = terminal long
!!!ENC: Emiliano Ricciardi
!!!END:
!!!EED: Ricciardi, Emiliano
!!!EEV: 2020/01/19
!!!YEC: Copyright 2018 Emiliano Ricciardi, All Rights Reserved
!!!ONB: Translated from MusicXML on 2020/01/19
!!@@BEGIN:	VERSEDATA
!!@CATALOGNUM:	Tsg16022
!!@LAST_MODIFIED: 2020/07/12
!!@TITLE:		Deh perché sdegni me, com'egli è vago
!!@CANTO:		XVI
!!@OTTAVA:	22
!!@MANUSRC:	G-Al, G-Au, G-Br<sub>1</sub>, G-Br<sub>2</sub>, G-Cv, G-Es<sub>1</sub>, G-Es<sub>2</sub>, G-Es<sub>3</sub>, G-F, G-Fr, G-Fr<sub>1</sub>, G-Fr<sub>2</sub>, G-Mc<sub>1</sub>, G-Mg, G-Mr, G-Mt, G-N, G-Ol
!!@PRINTSRC:	G-1580CM, G-1581B, G-1581CV, G-1581R, G-1581MR, G-1581P, G-1581V, G-1581V<sub>bis</sub>, G-1582C, G-1582M, G-1582MC, G-1582P, G-1582SC, G-1582SC<sub>bis</sub>, G-1583S, G-1584O, G-1584S, G-1585C, G-1585S, G-1588S, G-1589S, G-1590B, G-1590S, G-1592S, G-1593S, G-1594C, G-1595C, G-1597C, G-1598C, G-1599C, G-1600C, G-1600S, G-1601C, G-1601R, G-1602C, G-1604C, G-1604Cl, G-1604F, G-1604P, G-1606B, G-1606B<sub>bis</sub>, G-1606L, G-1607ZR, G-1608DP, G-1609GC, G-1610M, G-1611S, G-1611V, G-1612P, G-1613M, G-1613P, G-1613V, G-1615P, G-1616M, G-1617P, G-1619B, G-1619V, G-1620M, G-1620S, G-1621R, G-1624I, G-1624MT, G-1625C, G-1625S, G-1625SS, G-1626C, G-1626Co, G-1627M, G-1628T, G-1628Tu, G-1630L, G-1630T, G-1632FT, G-1639CF, G-1642M, G-1643I, G-1644P, G-1644S
!!@@BEGIN:	VERSES
!!@ABOUTIT:
!!@ABOUTEN:
!!@EDITOR:	Angelo Solerti
!!@EDITION_TITLE: Gerusalemme liberata. Poema eroico di Torquato Tasso. Edizione critica sui manoscritti e le prime stampe.
!!@EDITION_LOC:	Florence
!!@EDITION_PUB:	G. Barbera
!!@EDITION_DATE:  1895
!!@EDITION_VOL:
!!@EDITION_PAGE:
!!@TRANSLATOR:	Emiliano Ricciardi and Amyrose McCue Gill
!!@VERSE:
!!	Deh, poiché sdegni me, com’egli è vago
!!	Mirar tu almen potessi il proprio volto:
!!	Ché ’l guardo tuo, ch’altrove non è pago,
!!	Gioirebbe felice in se rivolto.
!!	Non può specchio ritrar sì dolce imago:
!!	Né in picciol vetro è un paradiso accolto.
!!	Specchio t’è degno il Cielo, e nelle stelle
!!	Puoi riguardar le tue sembianze belle.
!!@TVERSE:
!!	Oh, since you scorn me, may you at least [appreciate]
!!	How lovely it is to look at one’s face.
!!	For your glance, which otherwise is not repaid,
!!	Would take happy pleasure turned to itself.
!!	No mirror can portray such a sweet image:
!!	Nor in a little glass is a paradise housed.
!!	A worthy mirror for you is Heaven, and in the stars
!!	You can see reflected your beautiful appearance.
!!@@END:		VERSES
!!@OTHER_CRIT_ED:  Torquato Tasso, <i>Gerusalemme liberata</i>, ed. Lanfranco Caretti, 2 vols. (Bari: Laterza, 1967).
!!@ATTRIBUTION_ABOUT:
!!@DATING:	mid-1560s through 1570s
!!@DEDICATEE:	Duke Alfonso II d'Este
!!@COMMENTARY:
!!@@END:		VERSEDATA
!!@@BEGIN: SETTING
!!@CATALOGNUM:	Tsg16022a
!!@CANTO:		XVI
!!@OTTAVA:	22
!!@TITLE:	Deh, perché sdegni me, com'egli è vago
!!@SETTINGTITLE: Deh, poiché sdegni me, com'egli è vago
!!@COMPOSER:	Cifra, Antonio
!!@PARTS:		1 of 1
!!@PRINCEPSTITLE:	Li diversi scherzi a due, a tre et quattro voci. Libro sesto
!!@PRINCEPSLOC:	Rome?
!!@NORMLOC:	Antwerp
!!@NORMPUB:	Giovanni Battista Robletti
!!@NORMPUBSHORT:	Robletti
!!@PRINCEPSPUB:	Giovanni Battista Robletti
!!@PRINCEPSYEAR:	1619
!!@PRINCEPSRISM:	C 2217Z
!!@OVOICES:	1+bc
!!@EXTANTVOICES:	1+bc
!!@OMENSURATION:	C
!!@OCLEFS:	C1,F4
!!@OTIME:		
!!@OKEYSIG:	b-
!!@FINAL:	(G)(G)(G)G
!!@TIMPEDITOR:		Ricciardi, Emiliano
!!@REPRINTS:	
!!@@END: SETTING
